scalable/actions/edit-delete-mail.svg

<?xml version="1.0" encoding="UTF-8" standalone="no"?>
<svg
   xmlns:dc="http://purl.org/dc/elements/1.1/"
   xmlns:cc="http://creativecommons.org/ns#"
   xmlns:rdf="http://www.w3.org/1999/02/22-rdf-syntax-ns#"
   xmlns:svg="http://www.w3.org/2000/svg"
   xmlns="http://www.w3.org/2000/svg"
   xmlns:sodipodi="http://sodipodi.sourceforge.net/DTD/sodipodi-0.dtd"
   xmlns:inkscape="http://www.inkscape.org/namespaces/inkscape"
   viewBox="0 0 24 24"
   version="1.1"
   id="svg4"
   sodipodi:docname="edit-delete-mail.svg"
   inkscape:version="0.92.3 (2405546, 2018-03-11)"
   width="24"
   height="24"
   style="fill:#000000">
  <metadata
     id="metadata10">
    <rdf:RDF>
      <cc:Work
         rdf:about="">
        <dc:format>image/svg+xml</dc:format>
        <dc:type
           rdf:resource="http://purl.org/dc/dcmitype/StillImage" />
        <dc:title></dc:title>
      </cc:Work>
    </rdf:RDF>
  </metadata>
  <defs
     id="defs8" />
  <sodipodi:namedview
     pagecolor="#ffffff"
     bordercolor="#666666"
     borderopacity="1"
     objecttolerance="10"
     gridtolerance="10"
     guidetolerance="10"
     inkscape:pageopacity="0"
     inkscape:pageshadow="2"
     inkscape:window-width="1366"
     inkscape:window-height="717"
     id="namedview6"
     showgrid="false"
     inkscape:zoom="22.5"
     inkscape:cx="12"
     inkscape:cy="12"
     inkscape:window-x="0"
     inkscape:window-y="25"
     inkscape:window-maximized="1"
     inkscape:current-layer="svg4" />
  <path
     inkscape:connector-curvature="0"
     d="m 2.0018624,2.0009091 c -1.1049061,0 -1.989831,0.8949243 -1.989831,1.9998308 L 0.0020305,15.999722 c 0,1.104908 0.8949243,1.999833 1.9998305,1.999833 H 12.58097 a 6.4994505,6.4994505 0 0 1 -0.08202,-0.999913 6.4994505,6.4994505 0 0 1 6.499451,-6.499453 6.4994505,6.4994505 0 0 1 0.999916,0.08593 V 4.0006774 c 0,-1.1049066 -0.894926,-1.9998309 -1.999834,-1.9998309 H 1.9998309 m 0,1.9998309 7.9993232,4.9995767 7.9993219,-4.9995767 V 6.0005082 L 9.9991541,11.000084 1.9998309,6.0005082 V 4.0006774 M 18.998393,12.000001 a 4.9995772,4.9995772 0 0 0 -4.999574,4.999576 4.9995772,4.9995772 0 0 0 4.999574,4.999576 4.9995772,4.9995772 0 0 0 4.999577,-4.999576 4.9995772,4.9995772 0 0 0 -4.999577,-4.999576 m 0,1.999828 a 2.9997462,2.9997462 0 0 1 1.289929,0.294897 l -3.994664,3.995663 a 2.9997462,2.9997462 0 0 1 -0.294897,-1.290903 2.9997462,2.9997462 0 0 1 2.999747,-2.999748 m 2.704851,1.708841 a 2.9997462,2.9997462 0 0 1 0.294896,1.290907 2.9997462,2.9997462 0 0 1 -2.999747,2.999747 2.9997462,2.9997462 0 0 1 -1.289927,-0.295876 l 3.994664,-3.99466"
     id="path2-6"
     style="fill:#333333;stroke-width:0.49995759" />
</svg>

<svg xmlns="http://www.w3.org/2000/svg" viewBox="0 0 24 24">
  <path fill="#333" d="M2.0019 2.0009c-1.1049 0-1.9898.89492-1.9898 1.9998l-.010001 11.999c0 1.1049.89492 1.9998 1.9998 1.9998h10.579a6.4995 6.4995 0 0 1-.08202-.99991 6.4995 6.4995 0 0 1 6.4995-6.4995 6.4995 6.4995 0 0 1 .99992.08593v-6.5854c0-1.1049-.89493-1.9998-1.9998-1.9998h-15.999m0 1.9998l7.9993 4.9996 7.9993-4.9996v1.9998l-7.9993 4.9996-7.9993-4.9996v-1.9998m16.999 7.9993a4.9996 4.9996 0 0 0-4.9996 4.9996 4.9996 4.9996 0 0 0 4.9996 4.9996 4.9996 4.9996 0 0 0 4.9996-4.9996 4.9996 4.9996 0 0 0-4.9996-4.9996m0 1.9998a2.9997 2.9997 0 0 1 1.2899.2949l-3.9947 3.9957a2.9997 2.9997 0 0 1-.2949-1.2909 2.9997 2.9997 0 0 1 2.9997-2.9997m2.7049 1.7088a2.9997 2.9997 0 0 1 .2949 1.2909 2.9997 2.9997 0 0 1-2.9997 2.9997 2.9997 2.9997 0 0 1-1.2899-.29588l3.9947-3.9947"/>
</svg>
